P3
32 8
255
0 0 0 0 0 0 0 0 0 123 125 123 123 125 123 0 0 0 0 0 0 0 0 0 0 0 0 0 0 0 123 125 123 123 125 123 123 125 123 123 125 123 0 0 0 0 0 0 0 0 0 123 125 123 123 125 123 123 125 123 123 125 123 123 125 123 123 125 123 0 0 0 123 125 123 123 125 123 123 125 123 123 125 123 123 125 123 123 125 123 123 125 123 123 125 123
0 0 0 0 0 0 123 125 123 189 190 189 189 190 189 123 125 123 0 0 0 0 0 0 0 0 0 123 125 123 189 190 189 189 190 189 189 190 189 189 190 189 123 125 123 0 0 0 123 125 123 189 190 189 189 190 189 189 190 189 189 190 189 189 190 189 189 190 189 123 125 123 123 125 123 189 190 189 189 190 189 189 190 189 189 190 189 189 190 189 189 190 189 123 125 123
0 0 0 123 125 123 189 190 189 255 255 255 255 255 255 189 190 189 123 125 123 0 0 0 123 125 123 189 190 189 255 255 255 255 255 255 255 255 255 255 255 255 189 190 189 123 125 123 123 125 123 189 190 189 255 255 255 255 255 255 255 255 255 255 255 255 189 190 189 123 125 123 123 125 123 189 190 189 255 255 255 255 255 255 255 255 255 255 255 255 189 190 189 123 125 123
123 125 123 189 190 189 255 255 255 255 255 255 255 255 255 255 255 255 189 190 189 123 125 123 123 125 123 189 190 189 255 255 255 255 255 255 255 255 255 255 255 255 189 190 189 123 125 123 123 125 123 189 190 189 255 255 255 255 255 255 255 255 255 255 255 255 189 190 189 123 125 123 123 125 123 189 190 189 255 255 255 255 255 255 255 255 255 255 255 255 189 190 189 123 125 123
123 125 123 189 190 189 255 255 255 255 255 255 255 255 255 255 255 255 189 190 189 123 125 123 123 125 123 189 190 189 255 255 255 255 255 255 255 255 255 255 255 255 189 190 189 123 125 123 123 125 123 189 190 189 255 255 255 255 255 255 255 255 255 255 255 255 189 190 189 123 125 123 123 125 123 189 190 189 255 255 255 255 255 255 255 255 255 255 255 255 189 190 189 123 125 123
0 0 0 123 125 123 189 190 189 255 255 255 255 255 255 189 190 189 123 125 123 0 0 0 123 125 123 189 190 189 255 255 255 255 255 255 255 255 255 255 255 255 189 190 189 123 125 123 123 125 123 189 190 189 255 255 255 255 255 255 255 255 255 255 255 255 189 190 189 123 125 123 123 125 123 189 190 189 255 255 255 255 255 255 255 255 255 255 255 255 189 190 189 123 125 123
0 0 0 0 0 0 123 125 123 189 190 189 189 190 189 123 125 123 0 0 0 0 0 0 0 0 0 123 125 123 189 190 189 189 190 189 189 190 189 189 190 189 123 125 123 0 0 0 123 125 123 189 190 189 189 190 189 189 190 189 189 190 189 189 190 189 189 190 189 123 125 123 123 125 123 189 190 189 189 190 189 189 190 189 189 190 189 189 190 189 189 190 189 123 125 123
0 0 0 0 0 0 0 0 0 123 125 123 123 125 123 0 0 0 0 0 0 0 0 0 0 0 0 0 0 0 123 125 123 123 125 123 123 125 123 123 125 123 0 0 0 0 0 0 0 0 0 123 125 123 123 125 123 123 125 123 123 125 123 123 125 123 123 125 123 0 0 0 123 125 123 123 125 123 123 125 123 123 125 123 123 125 123 123 125 123 123 125 123 123 125 123
